X: 1
T: Lothian Lads
C: George Meikle
B: George Meikle "Originally Mine" p.12
R: reel
Z: 2010 John Chambers <jc:trillian.mit.edu>
M: C|
L: 1/8
K: F
C2 \
|: "F"F2EF "Gm"G2FG | "F7"A2GA "Bb"B2AB \
|1,3 "F"c2c=B "Dm"cdcA | "Gm"B2G2 "C7"GBAG \
:|2,4 "F"c2cB "C7"cdcB | "F"A2F2 "C7"F2 :| AB ||
|: "F"c2=Bc "C7"d2c2 | "Dm"A2^GA B2A2 \
|1 "Gm"G2^FG "G7"A2G2 | "C"E2^DE =D2C2 \
:|2 "Gm"G2^FG "C7"cBAG | "F"A2F2 "C7"FAB=B ||
|: "F"c2=Bc "C7"dcBc | "Dm"A2^GA BAGA \
|1 "Gm"G2^FG AGFG | "C"E2^DE =DEDC \
:|2 "Gm"G2^FG cBAG | "F"A2F2 "F"F4 |]
